hackathon/svg-icons/src/components/icons/source/flying-car.svg

<svg fill="none" height="256" viewBox="0 0 256 256" width="256" xmlns="http://www.w3.org/2000/svg"><g fill="#000"><path d="m39.8609 37.7707c.5635 1.6904 2.3011 2.6962 4.0483 2.3405l34.1996-6.8327 21.507 9.2265v11.7796h-10.5772c-1.0294 0-2.0069.4502-2.6758 1.2309l-42.3088 49.3605c-.2282.267-.4155.568-.554.891-.0205.053-.0252.113-.0456.165v.001c-.1275.339-.1999.696-.2157 1.058 0 .063-.0346.113-.0346.176v17.629c0 .935.3715 1.832 1.0325 2.493.6611.661 1.5583 1.033 2.4932 1.033h.3526c.8799 4.196 3.2613 7.925 6.6989 10.489v14.194c0 .935.3714 1.832 1.0325 2.493s1.5583 1.033 2.4932 1.033h28.2058c.935 0 1.8322-.372 2.4932-1.033.6611-.661 1.0326-1.558 1.0326-2.493v-10.577h77.5664v10.577c0 .935.371 1.832 1.032 2.493s1.558 1.033 2.493 1.033h28.206c.935 0 1.832-.372 2.493-1.033s1.033-1.558 1.033-2.493v-14.194c3.436-2.563 5.819-6.291 6.699-10.486h.352c.935 0 1.832-.371 2.494-1.033.661-.661 1.032-1.558 1.032-2.493v-17.628c0-.063-.031-.114-.035-.177-.015-.362-.088-.719-.215-1.057-.017-.054-.025-.114-.046-.166-.138-.324-.326-.625-.554-.892l-42.309-49.3603c-.669-.7823-1.646-1.2324-2.675-1.234h-10.578v-11.7796l21.536-9.2265 34.171 6.8327c1.742.3478 3.471-.6564 4.034-2.3406l3.526-10.5772c.323-.9695.209-2.0304-.312-2.9103-.519-.8798-1.394-1.4905-2.4-1.6731l-38.783-7.0515c-.652-.1164-1.324-.0503-1.939.1936l-35.258 14.103c-1.334.5398-2.206 1.8368-2.203 3.2754v21.1544h-21.154v-21.1544c0-1.4433-.879-2.7403-2.218-3.2754l-35.2575-14.103c-.6154-.2471-1.2875-.3148-1.9392-.1936l-38.783 7.0515c-1.0042.1826-1.8809.7933-2.4003 1.6731-.521.8799-.6343 1.9408-.3117 2.9103zm26.613 51.7698h45.8711l-4.689 14.1025h-53.261zm74.0721 14.1025h-25.459l4.7-14.1025h16.07zm29.585 7.052v10.577h-3.526v-10.577zm35.257 0v10.577h-3.525v-10.577zm-10.577 10.577h-17.628v-10.577h17.628zm-35.257 0h-7.052v-10.577h7.052zm-14.103 0h-35.257v-10.577h35.257zm-59.9374 0v-10.577h3.5258v10.577zm-35.2573 0v-10.577h3.5258v10.577zm10.5772-10.577h17.6287v10.577h-17.6287zm35.2573 0h7.0512v10.577h-7.0512zm-14.1029 38.783h-21.1544v-7.404c1.1601.236 2.3421.354 3.5258.352h17.6286zm112.8231 0h-21.154v-7.052h17.629c1.183.002 2.365-.116 3.525-.352zm-3.525-14.103h-126.9267c-2.1863-.003-4.3192-.682-6.1054-1.944-1.7849-1.262-3.137-3.047-3.8689-5.108h146.876c-.732 2.061-2.084 3.846-3.869 5.108-1.786 1.262-3.919 1.941-6.105 1.944zm7.051-31.732h-50.347l-4.7-14.1025h45.878l12.09 14.1025zm-15.22-21.154h-110.5873l18.1323-21.1544h74.322zm-37.666-46.9748 32.084-12.8405 33.788 6.1448-1.245 3.7666-32.19-6.4378c-.699-.1432-1.426-.0692-2.081.2141l-24.68 10.5772c-1.302.5524-2.147 1.8274-2.15 3.2408v14.1029h-3.526zm-67.3394-12.8405 32.0844 12.8405v18.7682h-3.526v-14.103c0-1.4103-.84-2.6852-2.136-3.2408l-24.68-10.5772c-.6563-.2833-1.3819-.3573-2.0808-.2141l-32.2038 6.4378-1.2592-3.765z"/><path d="m230.613 156.712c-5.983.735-11.49 3.631-15.485 8.144-3.996 4.513-6.206 10.33-6.213 16.357-4.948.022-9.777 1.524-13.866 4.308-4.091 2.786-7.257 6.729-9.09 11.324-10.313-3.063-21.449-1.482-30.503 4.327-9.055 5.81-15.132 15.272-16.646 25.924-4.042.286-7.887 1.848-10.986 4.457-3.1-2.61-6.945-4.171-10.987-4.457-1.514-10.652-7.591-20.114-16.646-25.924-9.0539-5.809-20.1896-7.39-30.5025-4.327-1.8337-4.595-4.9988-8.538-9.0899-11.324-4.089-2.785-8.9183-4.286-13.8668-4.308-.0063-6.027-2.2162-11.844-6.2125-16.357-3.9948-4.513-9.5022-7.409-15.485-8.144-.7052-2.104-2.0525-3.933-3.8516-5.232-1.8006-1.297-3.9633-1.995-6.1827-1.999v7.052c.9349 0 1.8321.371 2.4932 1.032.6611.662 1.0325 1.559 1.0325 2.494s.3715 1.832 1.0326 2.493c.661.661 1.5582 1.032 2.4932 1.032 4.6733.007 9.1544 1.866 12.4597 5.169 3.3038 3.306 5.1625 7.787 5.1689 12.46-.0031 1.089-.107 2.177-.3132 3.247-.2157 1.143.1464 2.319.968 3.142s1.9958 1.188 3.1385.976c1.0751-.203 2.1642-.309 3.2581-.314 4.02.018 7.9142 1.4 11.043 3.923 3.1289 2.523 5.3076 6.035 6.1763 9.959.2219 1.021.8846 1.893 1.8117 2.378s2.021.533 2.9874.132c9.011-3.741 19.2815-2.855 27.518 2.375 8.2361 5.231 13.4061 14.147 13.8531 23.895.044.976.494 1.89 1.24 2.521.748.63 1.722.924 2.695.814l.554-.074h-.002c.29-.049.582-.078.875-.088 3.743.014 7.274 1.739 9.587 4.683.669.835 1.681 1.323 2.753 1.323s2.084-.488 2.753-1.323c2.314-2.944 5.844-4.669 9.587-4.683.293.01.586.039.875.088l.554.074h-.001c.971.115 1.947-.179 2.693-.812s1.196-1.546 1.242-2.523c.447-9.748 5.616-18.664 13.853-23.895 8.236-5.23 18.507-6.116 27.518-2.375.968.398 2.062.349 2.99-.134.926-.486 1.587-1.355 1.809-2.376.868-3.924 3.047-7.436 6.176-9.959s7.023-3.905 11.043-3.923c1.094.005 2.183.111 3.258.314 1.143.212 2.317-.153 3.139-.976.821-.823 1.183-1.999.968-3.142-.207-1.07-.31-2.158-.314-3.247.007-4.673 1.866-9.154 5.169-12.46 3.306-3.304 7.787-5.162 12.46-5.169.935 0 1.832-.371 2.493-1.032s1.033-1.558 1.033-2.493c0-1.947 1.578-3.526 3.525-3.526v-7.052c-2.219.004-4.381.702-6.182 1.999-1.799 1.299-3.147 3.128-3.852 5.232z"/><path d="m64.3597 160.057h-7.0515c-.0267 9.972 3.9366 19.541 11.0068 26.573l.6059.603h.0016c1.3757 1.371 3.6013 1.371 4.9771 0l.6107-.606c7.0688-7.033 11.0305-16.599 11.0039-26.57h-7.0514c.0204 7.133-2.4775 14.044-7.0515 19.519-4.5742-5.475-7.072-12.386-7.0514-19.519z"/><path d="m177.183 160.057h-7.052c-.026 9.972 3.937 19.541 11.007 26.573l.606.603h.002c1.375 1.371 3.601 1.371 4.977 0l.611-.606c7.068-7.033 11.03-16.599 11.003-26.57h-7.051c.02 7.133-2.477 14.044-7.051 19.519-4.575-5.475-7.072-12.386-7.052-19.519z"/></g></svg>

<svg xmlns="http://www.w3.org/2000/svg" width="256" height="256" fill="none" viewBox="0 0 256 256"><path fill="#000" d="M39.8609 37.7707C40.4244 39.4611 42.162 40.4669 43.9092 40.1112L78.1088 33.2785L99.6158 42.505V54.2846H89.0386C88.0092 54.2846 87.0317 54.7348 86.3628 55.5155L44.054 104.876C43.8258 105.143 43.6385 105.444 43.5 105.767C43.4795 105.82 43.4748 105.88 43.4544 105.932V105.933C43.3269 106.272 43.2545 106.629 43.2387 106.991C43.2387 107.054 43.2041 107.104 43.2041 107.167V124.796C43.2041 125.731 43.5756 126.628 44.2366 127.289C44.8977 127.95 45.7949 128.322 46.7298 128.322H47.0824C47.9623 132.518 50.3437 136.247 53.7813 138.811V153.005C53.7813 153.94 54.1527 154.837 54.8138 155.498C55.4749 156.159 56.3721 156.531 57.307 156.531H85.5128C86.4478 156.531 87.345 156.159 88.006 155.498C88.6671 154.837 89.0386 153.94 89.0386 153.005V142.428H166.605V153.005C166.605 153.94 166.976 154.837 167.637 155.498C168.298 156.159 169.195 156.531 170.13 156.531H198.336C199.271 156.531 200.168 156.159 200.829 155.498C201.49 154.837 201.862 153.94 201.862 153.005V138.811C205.298 136.248 207.681 132.52 208.561 128.325H208.913C209.848 128.325 210.745 127.954 211.407 127.292C212.068 126.631 212.439 125.734 212.439 124.799V107.171C212.439 107.108 212.408 107.057 212.404 106.994C212.389 106.632 212.316 106.275 212.189 105.937C212.172 105.883 212.164 105.823 212.143 105.771C212.005 105.447 211.817 105.146 211.589 104.879L169.28 55.5187C168.611 54.7364 167.634 54.2863 166.605 54.2847H156.027V42.5051L177.563 33.2786L211.734 40.1113C213.476 40.4591 215.205 39.4549 215.768 37.7707L219.294 27.1935C219.617 26.224 219.503 25.1631 218.982 24.2832C218.463 23.4034 217.588 22.7927 216.582 22.6101L177.799 15.5586C177.147 15.4422 176.475 15.5083 175.86 15.7522L140.602 29.8552C139.268 30.395 138.396 31.692 138.399 33.1306V54.285H117.245V33.1306C117.245 31.6873 116.366 30.3903 115.027 29.8552L79.7695 15.7522C79.1541 15.5051 78.482 15.4374 77.8303 15.5586L39.0473 22.6101C38.0431 22.7927 37.1664 23.4034 36.647 24.2832C36.126 25.1631 36.0127 26.224 36.3353 27.1935L39.8609 37.7707ZM66.4739 89.5405H112.345L107.656 103.643H54.395L66.4739 89.5405ZM140.546 103.643H115.087L119.787 89.5405H135.857L140.546 103.643ZM170.131 110.695V121.272H166.605V110.695H170.131ZM205.388 110.695V121.272H201.863V110.695H205.388ZM194.811 121.272H177.183V110.695H194.811V121.272ZM159.554 121.272H152.502V110.695H159.554V121.272ZM145.451 121.272H110.194V110.695H145.451V121.272ZM85.5136 121.272V110.695H89.0394V121.272H85.5136ZM50.2563 121.272V110.695H53.7821V121.272H50.2563ZM60.8335 110.695H78.4622V121.272H60.8335V110.695ZM96.0908 110.695H103.142V121.272H96.0908V110.695ZM81.9879 149.478H60.8335V142.074C61.9936 142.31 63.1756 142.428 64.3593 142.426H81.9879V149.478ZM194.811 149.478H173.657V142.426H191.286C192.469 142.428 193.651 142.31 194.811 142.074V149.478ZM191.286 135.375H64.3593C62.173 135.372 60.0401 134.693 58.2539 133.431C56.469 132.169 55.1169 130.384 54.385 128.323H201.261C200.529 130.384 199.177 132.169 197.392 133.431C195.606 134.693 193.473 135.372 191.287 135.375H191.286ZM198.337 103.643H147.99L143.29 89.5405H189.168L201.258 103.643H198.337ZM183.117 82.489H72.5297L90.662 61.3346H164.984L183.117 82.489ZM145.451 35.5142L177.535 22.6737L211.323 28.8185L210.078 32.5851L177.888 26.1473C177.189 26.0041 176.462 26.0781 175.807 26.3614L151.127 36.9386C149.825 37.491 148.98 38.766 148.977 40.1794V54.2823H145.451L145.451 35.5142ZM78.1116 22.6737L110.196 35.5142V54.2824H106.67V40.1794C106.67 38.7691 105.83 37.4942 104.534 36.9386L79.854 26.3614C79.1977 26.0781 78.4721 26.0041 77.7732 26.1473L45.5694 32.5851L44.3102 28.8201L78.1116 22.6737Z"/><path fill="#000" d="M230.613 156.712C224.63 157.447 219.123 160.343 215.128 164.856C211.132 169.369 208.922 175.186 208.915 181.213C203.967 181.235 199.138 182.737 195.049 185.521C190.958 188.307 187.792 192.25 185.959 196.845C175.646 193.782 164.51 195.363 155.456 201.172C146.401 206.982 140.324 216.444 138.81 227.096C134.768 227.382 130.923 228.944 127.824 231.553C124.724 228.943 120.879 227.382 116.837 227.096C115.323 216.444 109.246 206.982 100.191 201.172C91.1371 195.363 80.0014 193.782 69.6885 196.845C67.8548 192.25 64.6897 188.307 60.5986 185.521C56.5096 182.736 51.6803 181.235 46.7318 181.213C46.7255 175.186 44.5156 169.369 40.5193 164.856C36.5245 160.343 31.0171 157.447 25.0343 156.712C24.3291 154.608 22.9818 152.779 21.1827 151.48C19.3821 150.183 17.2194 149.485 15 149.481V156.533C15.9349 156.533 16.8321 156.904 17.4932 157.565C18.1543 158.227 18.5257 159.124 18.5257 160.059C18.5257 160.994 18.8972 161.891 19.5583 162.552C20.2193 163.213 21.1165 163.584 22.0515 163.584C26.7248 163.591 31.2059 165.45 34.5112 168.753C37.815 172.059 39.6737 176.54 39.6801 181.213C39.677 182.302 39.5731 183.39 39.3669 184.46C39.1512 185.603 39.5133 186.779 40.3349 187.602C41.1565 188.425 42.3307 188.79 43.4734 188.578C44.5485 188.375 45.6376 188.269 46.7315 188.264C50.7515 188.282 54.6457 189.664 57.7745 192.187C60.9034 194.71 63.0821 198.222 63.9508 202.146C64.1727 203.167 64.8354 204.039 65.7625 204.524C66.6896 205.009 67.7835 205.057 68.7499 204.656C77.7609 200.915 88.0314 201.801 96.2679 207.031C104.504 212.262 109.674 221.178 110.121 230.926C110.165 231.902 110.615 232.816 111.361 233.447C112.109 234.077 113.083 234.371 114.056 234.261L114.61 234.187H114.608C114.898 234.138 115.19 234.109 115.483 234.099C119.226 234.113 122.757 235.838 125.07 238.782C125.739 239.617 126.751 240.105 127.823 240.105C128.895 240.105 129.907 239.617 130.576 238.782C132.89 235.838 136.42 234.113 140.163 234.099C140.456 234.109 140.749 234.138 141.038 234.187L141.592 234.261H141.591C142.562 234.376 143.538 234.082 144.284 233.449C145.03 232.816 145.48 231.903 145.526 230.926C145.973 221.178 151.142 212.262 159.379 207.031C167.615 201.801 177.886 200.915 186.897 204.656C187.865 205.054 188.959 205.005 189.887 204.522C190.813 204.036 191.474 203.167 191.696 202.146C192.564 198.222 194.743 194.71 197.872 192.187C201.001 189.664 204.895 188.282 208.915 188.264C210.009 188.269 211.098 188.375 212.173 188.578C213.316 188.79 214.49 188.425 215.312 187.602C216.133 186.779 216.495 185.603 216.28 184.46C216.073 183.39 215.97 182.302 215.966 181.213C215.973 176.54 217.832 172.059 221.135 168.753C224.441 165.449 228.922 163.591 233.595 163.584C234.53 163.584 235.427 163.213 236.088 162.552C236.749 161.891 237.121 160.994 237.121 160.059C237.121 158.112 238.699 156.533 240.646 156.533V149.481C238.427 149.485 236.265 150.183 234.464 151.48C232.665 152.779 231.317 154.608 230.612 156.712H230.613Z"/><path fill="#000" d="M64.3597 160.057H57.3082C57.2815 170.029 61.2448 179.598 68.315 186.63L68.9209 187.233H68.9225C70.2982 188.604 72.5238 188.604 73.8996 187.233L74.5103 186.627C81.5791 179.594 85.5408 170.028 85.5142 160.057H78.4628C78.4832 167.19 75.9853 174.101 71.4113 179.576C66.8371 174.101 64.3393 167.19 64.3599 160.057L64.3597 160.057Z"/><path fill="#000" d="M177.183 160.057H170.131C170.105 170.029 174.068 179.598 181.138 186.63L181.744 187.233H181.746C183.121 188.604 185.347 188.604 186.723 187.233L187.334 186.627C194.402 179.594 198.364 170.028 198.337 160.057H191.286C191.306 167.19 188.809 174.101 184.235 179.576C179.66 174.101 177.163 167.19 177.183 160.057L177.183 160.057Z"/></svg>
